images/background-lines.svg

<svg width="1810" height="255" viewBox="0 0 1810 255" fill="none" xmlns="http://www.w3.org/2000/svg">
    <path opacity="0.6"
        d="M1809.72 106.828C1809.95 106.988 1810 107.3 1809.84 107.525C1809.68 107.751 1809.37 107.804 1809.15 107.644L1809.72 106.828ZM1051.5 197.266L1051.32 196.799L1051.5 197.266ZM221.619 83.1677C221.386 83.0195 221.317 82.7105 221.466 82.4774C221.614 82.2444 221.923 82.1757 222.156 82.3239L221.619 83.1677ZM1790.72 30.5693C1790.95 30.7144 1791.02 31.0225 1790.88 31.2574C1790.73 31.4924 1790.43 31.5653 1790.19 31.4202L1790.72 30.5693ZM932.632 146.039L932.46 145.569L932.632 146.039ZM0.502687 57.8469C0.260687 57.7139 0.172321 57.4099 0.305325 57.1679C0.438324 56.9259 0.742325 56.8376 0.984326 56.9706L0.502687 57.8469ZM1041.27 192.861L1041.1 192.393L1041.27 192.861ZM1022.2 184.64L1022.38 185.108L1022.2 184.64ZM1013.35 180.825L1013.52 181.293L1013.35 180.825ZM1004.95 177.205L1005.13 177.673L1004.95 177.205ZM997.009 173.783L997.185 174.251L997.009 173.783ZM989.524 170.557L989.699 171.026L989.524 170.557ZM982.496 167.529L982.67 167.997L982.496 167.529ZM975.923 164.696L975.749 164.227L975.923 164.696ZM969.807 162.06L969.633 161.591L969.807 162.06ZM964.147 159.621L963.973 159.152L964.147 159.621ZM954.195 155.332L954.022 154.862L954.195 155.332ZM946.067 151.829L946.24 152.298L946.067 151.829ZM942.687 150.373L942.86 150.842L942.687 150.373ZM939.764 149.112L939.936 149.582L939.764 149.112ZM935.286 147.183L935.114 146.713L935.286 147.183ZM933.731 146.512L933.903 146.982L933.731 146.512ZM1809.15 107.644C1790.13 94.1617 1757.89 83.6136 1714.01 77.7506C1670.14 71.8896 1614.7 70.7173 1549.35 75.9442C1418.64 86.3978 1248.32 122.445 1051.68 197.733L1051.32 196.799C1248.04 121.482 1418.46 85.4096 1549.27 74.9473C1614.67 69.7163 1670.19 70.8869 1714.14 76.7594C1758.08 82.63 1790.51 93.206 1809.72 106.828L1809.15 107.644ZM1051.68 197.733C658.074 348.429 346.571 162.639 221.619 83.1677L222.156 82.3239C347.068 161.77 658.196 347.312 1051.32 196.799L1051.68 197.733ZM1790.19 31.4202C1769.18 18.4502 1733.15 8.86317 1683.84 4.37006C1634.55 -0.1215 1572.06 0.481975 1498.17 7.84863C1350.39 22.5818 1157.09 64.364 932.804 146.508L932.46 145.569C1156.81 63.4001 1350.2 21.5962 1498.07 6.85354C1572 -0.517673 1634.57 -1.1245 1683.93 3.37419C1733.28 7.87133 1769.51 17.4751 1790.72 30.5693L1790.19 31.4202ZM932.804 146.508C483.957 310.899 138.811 133.859 0.502687 57.8469L0.984326 56.9706C139.229 132.948 484.036 309.805 932.46 145.569L932.804 146.508ZM1807.52 101.089C1788.33 87.6511 1755.76 77.1856 1711.41 71.4404C1667.08 65.6971 1611.03 64.6775 1544.95 70.0883C1412.77 80.91 1240.47 117.45 1041.45 193.328L1041.1 192.393C1240.19 116.487 1412.59 79.922 1544.87 69.0917C1611 63.6766 1667.12 64.6943 1711.54 70.4487C1755.94 76.2011 1788.71 86.6935 1808.09 100.27L1807.52 101.089ZM1041.45 193.328C643.101 345.202 328.705 160.164 202.605 80.9903L203.136 80.1434C329.195 159.291 643.219 344.087 1041.1 192.393L1041.45 193.328ZM1805.96 94.8275C1786.61 81.4314 1753.73 71.0448 1708.93 65.4121C1664.16 59.7813 1607.53 58.9075 1540.74 64.4941C1407.17 75.6674 1232.98 112.679 1031.69 189.12L1031.33 188.185C1232.7 111.715 1406.98 74.6796 1540.66 63.4976C1607.5 57.9067 1664.2 58.7784 1709.06 64.4199C1753.91 70.0594 1786.98 80.4719 1806.53 94.0053L1805.96 94.8275ZM1031.69 189.12C628.797 342.119 311.637 157.8 184.439 78.9105L184.966 78.0607C312.119 156.923 628.911 341.006 1031.33 188.185L1031.69 189.12ZM1804.47 88.8577C1784.97 75.5017 1751.79 65.1903 1706.57 59.6648C1661.37 54.1413 1604.19 53.4066 1536.73 59.1608C1401.82 70.6692 1225.83 108.13 1022.38 185.108L1022.02 184.172C1225.55 107.166 1401.63 69.6817 1536.65 58.1644C1604.16 52.4059 1661.41 53.1383 1706.69 58.6722C1751.96 64.2042 1785.34 74.5404 1805.04 88.0326L1804.47 88.8577ZM1022.38 185.108C615.16 339.179 295.365 155.546 167.121 76.9273L167.644 76.0747C295.841 154.665 615.271 338.068 1022.02 184.172L1022.38 185.108ZM1803.06 83.1806C1783.41 69.8628 1749.95 59.623 1704.33 54.1995C1658.72 48.778 1601.01 48.1755 1532.92 54.0891C1396.74 65.9163 1219.04 103.804 1013.52 181.293L1013.17 180.357C1218.76 102.841 1396.55 64.9289 1532.84 53.0929C1600.98 47.1749 1658.75 47.775 1704.44 53.2065C1750.12 58.6362 1783.77 68.9 1803.62 82.3528L1803.06 83.1806ZM1013.52 181.293C602.192 336.384 279.891 153.403 150.652 75.0416L151.171 74.1865C280.361 152.518 602.299 335.275 1013.17 180.357L1013.52 181.293ZM1801.72 77.7956C1781.93 64.5139 1748.2 54.342 1702.19 49.0153C1656.2 43.6905 1598 43.2135 1529.31 49.2783C1391.92 61.4077 1212.59 99.7008 1005.13 177.673L1004.77 176.737C1212.31 98.7372 1391.73 60.4206 1529.22 48.2821C1597.96 42.213 1656.24 42.6875 1702.31 48.0219C1748.37 53.3545 1782.29 63.5497 1802.28 76.9652L1801.72 77.7956ZM1005.13 177.673C589.892 333.732 265.214 151.37 135.032 73.2525L135.546 72.395C265.678 150.482 589.996 332.625 1004.77 176.737L1005.13 177.673ZM1800.46 72.7034C1780.53 59.4559 1746.55 49.3482 1700.18 44.1131C1653.83 38.8797 1595.15 38.5213 1525.89 44.7291C1387.36 57.1444 1206.5 95.8206 997.185 174.251L996.834 173.315C1206.22 94.857 1387.17 56.1574 1525.8 43.7331C1595.11 37.5209 1653.86 37.8767 1700.29 43.1194C1746.71 48.3602 1780.88 58.4904 1801.01 71.8706L1800.46 72.7034ZM997.185 174.251C578.26 331.225 251.335 149.447 120.26 71.561L120.771 70.7013C251.794 148.556 578.361 330.119 996.834 173.315L997.185 174.251ZM1799.26 67.9037C1779.21 54.6885 1744.99 44.6413 1698.28 39.4924C1651.59 34.3453 1592.47 34.0987 1522.66 40.4412C1383.06 53.126 1200.75 92.1633 989.699 171.026L989.349 170.089C1200.47 91.1996 1382.87 52.1392 1522.57 39.4453C1592.43 33.0984 1651.61 33.3422 1698.39 38.4984C1745.15 43.6528 1779.56 53.7217 1799.81 67.0687L1799.26 67.9037ZM989.699 171.026C567.295 328.862 238.252 147.635 106.336 69.9665L106.844 69.1048C238.706 146.742 567.394 327.757 989.349 170.089L989.699 171.026ZM1798.14 63.3968C1777.97 50.2119 1743.53 40.2215 1696.5 35.1536C1649.48 30.0875 1589.95 29.946 1519.64 36.4149C1379.02 49.3528 1195.36 88.7293 982.67 167.997L982.321 167.06C1195.08 87.7655 1378.83 48.3661 1519.55 35.4192C1589.9 28.9457 1649.51 29.0845 1696.6 34.1594C1743.68 39.2326 1778.32 49.244 1798.69 62.5597L1798.14 63.3968ZM982.67 167.997C557 326.643 225.967 145.933 93.2616 68.4696L93.7658 67.606C226.417 145.038 557.096 325.54 982.321 167.06L982.67 167.997ZM1797.09 59.1818C1776.81 46.0253 1742.16 36.088 1694.83 31.0959C1647.51 26.1055 1587.59 26.0621 1516.81 32.6495C1375.25 45.824 1190.31 85.5175 976.097 165.165L975.749 164.227C1190.04 84.5538 1375.06 44.8375 1516.72 31.6538C1587.54 25.062 1647.54 25.1025 1694.93 30.1014C1742.31 35.0987 1777.16 45.0564 1797.64 58.3429L1797.09 59.1818ZM976.097 165.165C547.372 324.567 214.48 144.342 81.0353 67.0693L81.5364 66.204C214.924 143.444 547.466 323.466 975.749 164.227L976.097 165.165ZM1796.12 55.2599C1775.74 42.1297 1740.89 32.2419 1693.28 27.3203C1645.68 22.4004 1585.39 22.4484 1514.18 29.1458C1371.74 42.5405 1185.62 82.5292 969.981 162.529L969.633 161.591C1185.34 81.5654 1371.55 41.5541 1514.08 28.1502C1585.35 21.4483 1645.71 21.3973 1693.38 26.3256C1741.04 31.2522 1776.08 41.1598 1796.66 54.4192L1796.12 55.2599ZM969.981 162.529C538.413 322.637 203.789 142.861 69.6573 65.7667L70.1556 64.8997C204.23 141.961 538.504 321.536 969.633 161.591L969.981 162.529ZM1795.22 51.6298C1774.74 38.524 1739.71 28.682 1691.84 23.8256C1643.99 18.9709 1583.36 19.1035 1511.74 25.9028C1368.49 39.5013 1181.28 79.7631 964.32 160.089L963.973 159.152C1181 78.7993 1368.3 38.515 1511.64 24.9073C1583.32 18.1035 1644.01 17.9678 1691.94 22.8307C1739.86 27.6919 1775.08 37.5533 1795.76 50.7875L1795.22 51.6298ZM964.32 160.089C530.121 320.849 193.895 141.49 59.1279 64.5605L59.6236 63.692C194.333 140.588 530.211 319.749 963.973 159.152L964.32 160.089ZM1794.39 48.2926C1773.82 35.2092 1738.63 25.4094 1690.52 20.613C1642.43 15.8182 1581.5 16.0286 1509.5 22.9216C1365.5 36.7074 1177.28 77.2203 959.116 157.847L958.769 156.909C1177 76.2564 1365.31 35.7213 1509.4 21.9261C1581.45 15.0286 1642.45 14.8152 1690.62 19.6179C1738.77 24.419 1774.16 34.2378 1794.92 47.4489L1794.39 48.2926ZM959.116 157.847C522.498 319.206 184.799 140.23 49.4471 63.452L49.9405 62.5822C185.233 139.327 522.586 318.107 958.769 156.909L959.116 157.847ZM1793.63 45.2479C1772.98 32.185 1737.64 22.4235 1689.32 17.6818C1641.01 12.9418 1579.79 13.2231 1507.45 20.2015C1362.77 34.1584 1173.64 74.9003 954.368 155.801L954.022 154.862C1173.36 73.9364 1362.58 33.1723 1507.36 19.2062C1579.74 12.2232 1641.03 11.9387 1689.41 16.6866C1737.78 21.4328 1773.32 31.2128 1794.16 44.4028L1793.63 45.2479ZM954.368 155.801C515.543 317.707 176.501 139.081 40.6148 62.4405L41.1061 61.5695C176.931 138.175 515.63 316.609 954.022 154.862L954.368 155.801ZM1792.94 42.4957C1772.23 29.4512 1736.74 19.7245 1688.23 15.0323C1639.72 10.3417 1578.25 10.6871 1505.6 17.7428C1360.31 31.8542 1170.34 72.8032 950.075 153.951L949.73 153.013C1170.07 71.8393 1360.12 30.8682 1505.51 16.7475C1578.2 9.68724 1639.74 9.33865 1688.32 14.0369C1736.89 18.7335 1772.56 28.4785 1793.48 41.6494L1792.94 42.4957ZM950.075 153.951C509.256 316.352 168.999 138.041 32.6308 61.5262L33.1201 60.6541C169.427 137.135 509.341 315.255 949.73 153.013L950.075 153.951ZM1792.33 40.0358C1771.55 27.0079 1735.95 17.3122 1687.25 12.6642C1638.58 8.01778 1576.88 8.4205 1503.95 15.5453C1358.11 29.7948 1167.4 70.9288 946.24 152.298L945.894 151.359C1167.12 69.9649 1357.91 28.8088 1503.86 14.55C1576.83 7.42069 1638.59 7.01474 1687.35 11.6687C1736.09 16.321 1771.88 26.0346 1792.86 39.1885L1792.33 40.0358ZM946.24 152.298C503.637 315.141 162.294 137.112 25.4955 60.7089L25.9831 59.8359C162.72 136.205 503.721 314.044 945.894 151.359L946.24 152.298ZM1791.79 37.8688C1770.96 24.8555 1735.24 15.1871 1686.39 10.5781C1637.56 5.97065 1575.66 6.42387 1502.5 13.6095C1356.17 27.9806 1164.81 69.2777 942.86 150.842L942.515 149.903C1164.53 68.3138 1355.97 26.9948 1502.4 12.6143C1575.61 5.42409 1637.58 4.96762 1686.49 9.58252C1735.38 14.1958 1771.28 23.8818 1792.32 37.0207L1791.79 37.8688ZM942.86 150.842C498.687 314.074 156.387 136.294 19.2088 59.9893L19.6949 59.1154C156.811 135.386 498.77 312.978 942.515 149.903L942.86 150.842ZM1791.33 35.9939C1770.44 22.9931 1734.63 13.3484 1685.65 8.77305C1636.69 4.19931 1574.62 4.6962 1501.24 11.9345C1354.49 26.4108 1162.56 67.849 939.936 149.582L939.592 148.643C1162.29 66.8851 1354.3 25.425 1501.14 10.9393C1574.56 3.69647 1636.7 3.19628 1685.75 7.77738C1734.77 12.3569 1770.77 22.019 1791.86 35.1449L1791.33 35.9939ZM939.936 149.582C494.405 313.151 151.278 135.586 13.7705 59.3662L14.2553 58.4916C151.699 134.677 494.486 312.055 939.592 148.643L939.936 149.582ZM1790.93 34.4118C1770.01 21.4217 1734.12 11.7969 1685.03 7.25003C1635.95 2.70473 1573.73 3.23848 1500.18 10.5212C1353.07 25.0864 1160.67 66.6435 937.469 148.519L937.125 147.58C1160.39 65.6796 1352.88 24.1006 1500.08 9.52602C1573.68 2.23879 1635.96 1.7017 1685.12 6.25432C1734.26 10.8053 1770.33 20.4472 1791.46 33.5622L1790.93 34.4118ZM937.469 148.519C490.79 312.372 146.965 134.989 9.18079 58.8408L9.66449 57.9655C147.385 134.079 490.871 311.277 937.125 147.58L937.469 148.519ZM1790.61 33.1221C1769.65 20.1407 1733.7 10.5322 1684.52 6.00851C1635.35 1.48637 1573.01 2.05017 1499.31 9.36906C1351.92 24.0067 1159.12 65.6609 935.458 147.652L935.114 146.713C1158.85 64.697 1351.72 23.021 1499.21 8.37394C1572.96 1.0505 1635.36 0.48336 1684.61 5.01272C1733.84 9.54049 1769.98 19.1659 1791.14 32.272L1790.61 33.1221ZM935.458 147.652C487.844 311.737 143.45 134.502 5.43959 58.4124L5.9224 57.5366C143.869 133.591 487.925 310.642 935.114 146.713L935.458 147.652ZM1790.37 32.125C1769.38 19.1502 1733.38 9.55431 1684.12 5.04854C1634.88 0.544332 1572.45 1.13137 1498.64 8.47824C1351.02 23.1719 1157.93 64.9011 933.903 146.982L933.559 146.043C1157.65 63.9372 1350.83 22.1862 1498.54 7.48315C1572.4 0.131714 1634.89 -0.458699 1684.21 4.05269C1733.51 8.56254 1769.7 18.1753 1790.89 31.2744L1790.37 32.125ZM933.903 146.982C485.567 311.246 140.732 134.125 2.5469 58.0811L3.02902 57.205C141.15 133.214 485.646 310.152 933.559 146.043L933.903 146.982Z"
        fill="#FD1640" />
</svg>

<svg width="1810" height="255" fill="none" xmlns="http://www.w3.org/2000/svg"><path opacity=".6" d="M1809.72 106.828c.23.16.28.472.12.697a.492.492 0 0 1-.69.119l.57-.816Zm-758.22 90.438-.18-.467.18.467ZM221.619 83.168a.5.5 0 1 1 .537-.844l-.537.844ZM1790.72 30.569c.23.145.3.454.16.688a.502.502 0 0 1-.69.163l.53-.85ZM932.632 146.04l-.172-.47.172.47ZM.502 57.847a.5.5 0 1 1 .482-.876l-.481.876ZM1041.27 192.86l-.17-.468.17.468Zm-19.07-8.221.18.468-.18-.468Zm-8.85-3.815.17.468-.17-.468Zm-8.4-3.62.18.468-.18-.468Zm-7.941-3.422.176.468-.176-.468Zm-7.485-3.226.175.469-.175-.469Zm-7.028-3.028.174.468-.174-.468Zm-6.573-2.833-.174-.469.174.469Zm-6.116-2.636-.174-.469.174.469Zm-5.66-2.439-.174-.469.174.469Zm-9.952-4.289-.173-.47.173.47Zm-8.128-3.503.173.469-.173-.469Zm-3.38-1.456.173.469-.173-.469Zm-2.923-1.261.172.47-.172-.47Zm-4.478-1.929-.172-.47.172.47Zm-1.555-.671.172.47-.172-.47Zm875.419-38.868c-19.02-13.482-51.26-24.03-95.14-29.893-43.87-5.861-99.31-7.034-164.66-1.807-130.71 10.454-301.03 46.501-497.67 121.789l-.36-.934c196.72-75.317 367.14-111.39 497.95-121.852 65.4-5.23 120.92-4.06 164.87 1.812 43.94 5.871 76.37 16.447 95.58 30.069l-.57.816Zm-757.47 90.089C658.074 348.429 346.571 162.639 221.619 83.168l.537-.844c124.912 79.446 436.04 264.988 829.164 114.475l.36.934ZM1790.19 31.42c-21.01-12.97-57.04-22.557-106.35-27.05-49.29-4.492-111.78-3.888-185.67 3.479-147.78 14.733-341.08 56.515-565.366 138.659l-.344-.939C1156.81 63.4 1350.2 21.596 1498.07 6.854c73.93-7.372 136.5-7.979 185.86-3.48 49.35 4.497 85.58 14.101 106.79 27.195l-.53.851ZM932.804 146.508C483.957 310.899 138.811 133.859.503 57.847l.481-.876c138.245 75.977 483.052 252.834 931.476 88.598l.344.939Zm874.716-45.419c-19.19-13.438-51.76-23.903-96.11-29.649-44.33-5.743-100.38-6.763-166.46-1.352-132.18 10.822-304.48 47.362-503.5 123.24l-.35-.935c199.09-75.906 371.49-112.471 503.77-123.301 66.13-5.415 122.25-4.398 166.67 1.357 44.4 5.752 77.17 16.245 96.55 29.821l-.57.819Zm-766.07 92.239C643.101 345.202 328.705 160.164 202.605 80.99l.531-.847c126.059 79.148 440.083 263.944 837.964 112.25l.35.935Zm764.51-98.5c-19.35-13.397-52.23-23.783-97.03-29.416-44.77-5.63-101.4-6.505-168.19-.918-133.57 11.173-307.76 48.185-509.05 124.626l-.36-.935c201.37-76.47 375.65-113.505 509.33-124.687 66.84-5.591 123.54-4.72 168.4.922 44.85 5.64 77.92 16.052 97.47 29.585l-.57.823Zm-774.27 94.292C628.797 342.119 311.637 157.8 184.439 78.91l.527-.85c127.153 78.863 443.945 262.946 846.364 110.125l.36.935Zm772.78-100.262c-19.5-13.356-52.68-23.668-97.9-29.193-45.2-5.524-102.38-6.258-169.84-.504-134.91 11.508-310.9 48.969-514.35 125.947l-.36-.936c203.53-77.006 379.61-114.49 514.63-126.008 67.51-5.758 124.76-5.026 170.04.508 45.27 5.532 78.65 15.868 98.35 29.36l-.57.826Zm-782.09 96.25c-407.22 154.071-727.015-29.562-855.259-108.18l.523-.853c128.197 78.59 447.627 261.993 854.376 108.097l.36.936Zm780.68-101.927c-19.65-13.318-53.11-23.558-98.73-28.981-45.61-5.422-103.32-6.025-171.41-.11-136.18 11.826-313.88 49.714-519.4 127.203l-.35-.936c205.59-77.516 383.38-115.428 519.67-127.264 68.14-5.918 125.91-5.318 171.6.113 45.68 5.43 79.33 15.694 99.18 29.147l-.56.828Zm-789.54 98.112c-411.328 155.091-733.629-27.89-862.868-106.251l.519-.856c129.19 78.332 451.128 261.089 861.999 106.171l.35.936Zm788.2-103.497c-19.79-13.282-53.52-23.454-99.53-28.78-45.99-5.325-104.19-5.802-172.88.262-137.39 12.13-316.72 50.423-524.18 128.395l-.36-.936c207.54-78 386.96-116.316 524.45-128.455 68.74-6.069 127.02-5.594 173.09-.26 46.06 5.333 79.98 15.528 99.97 28.943l-.56.83Zm-796.59 99.877C589.892 333.732 265.214 151.37 135.032 73.253l.514-.858c130.132 78.087 454.45 260.23 869.224 104.342l.36.936Zm795.33-104.97c-19.93-13.247-53.91-23.355-100.28-28.59-46.35-5.233-105.03-5.592-174.29.616-138.53 12.415-319.39 51.092-528.705 129.522l-.351-.936C1206.22 94.857 1387.17 56.157 1525.8 43.733c69.31-6.212 128.06-5.856 174.49-.614 46.42 5.241 80.59 15.371 100.72 28.752l-.55.832ZM997.185 174.251C578.26 331.225 251.335 149.447 120.26 71.561l.511-.86c131.023 77.855 457.59 259.418 876.063 102.614l.351.936ZM1799.26 67.904c-20.05-13.215-54.27-23.263-100.98-28.412-46.69-5.147-105.81-5.393-175.62.95-139.6 12.684-321.91 51.721-532.961 130.584l-.35-.937c211.121-78.89 393.521-117.95 533.221-130.644 69.86-6.347 129.04-6.103 175.82-.947 46.76 5.155 81.17 15.224 101.42 28.57l-.55.836ZM989.699 171.026c-422.404 157.836-751.447-23.391-883.363-101.06l.508-.861c131.862 77.637 460.55 258.652 882.505 100.984l.35.937Zm808.441-107.63c-20.17-13.184-54.61-23.175-101.64-28.242-47.02-5.067-106.55-5.208-176.86 1.26-140.62 12.939-324.28 52.315-536.97 131.583l-.349-.937C1195.08 87.766 1378.83 48.366 1519.55 35.42c70.35-6.474 129.96-6.336 177.05-1.26 47.08 5.073 81.72 15.084 102.09 28.4l-.55.837ZM982.67 167.998C557 326.643 225.967 145.933 93.262 68.47l.504-.864c132.651 77.432 463.33 257.934 888.555 99.454l.349.937Zm814.42-108.815c-20.28-13.157-54.93-23.094-102.26-28.086-47.32-4.99-107.24-5.034-178.02 1.554-141.56 13.174-326.5 52.867-540.713 132.515l-.348-.938C1190.04 84.554 1375.06 44.837 1516.72 31.654c70.82-6.592 130.82-6.552 178.21-1.553 47.38 4.998 82.23 14.955 102.71 28.242l-.55.839ZM976.097 165.165C547.372 324.567 214.48 144.342 81.035 67.069l.501-.865c133.388 77.24 465.93 257.262 894.213 98.023l.348.938ZM1796.12 55.26c-20.38-13.13-55.23-23.018-102.84-27.94-47.6-4.92-107.89-4.872-179.1 1.826-142.44 13.395-328.56 53.383-544.199 133.383l-.348-.938C1185.34 81.565 1371.55 41.554 1514.08 28.151c71.27-6.703 131.63-6.754 179.3-1.825 47.66 4.926 82.7 14.834 103.28 28.093l-.54.84ZM969.981 162.529C538.413 322.637 203.789 142.861 69.657 65.767l.499-.867c134.074 77.06 468.348 256.636 899.477 96.69l.348.938Zm825.239-110.9c-20.48-13.105-55.51-22.947-103.38-27.803-47.85-4.855-108.48-4.723-180.1 2.077-143.25 13.598-330.46 53.86-547.42 134.186l-.347-.937C1181 78.799 1368.3 38.515 1511.64 24.907c71.68-6.803 132.37-6.94 180.3-2.076 47.92 4.86 83.14 14.722 103.82 27.957l-.54.842Zm-830.9 108.46C530.121 320.849 193.895 141.49 59.128 64.561l.496-.869c134.709 76.896 470.587 256.057 904.349 95.46l.347.937Zm830.07-111.796c-20.57-13.084-55.76-22.884-103.87-27.68-48.09-4.795-109.02-4.584-181.02 2.309-144 13.785-332.22 54.298-550.384 134.925l-.347-.938C1177 76.256 1365.31 35.721 1509.4 21.926c72.05-6.897 133.05-7.11 181.22-2.308 48.15 4.801 83.54 14.62 104.3 27.83l-.53.845ZM959.116 157.847C522.498 319.206 184.799 140.23 49.447 63.452l.493-.87c135.293 76.745 472.646 255.525 908.829 94.327l.347.938Zm834.514-112.6c-20.65-13.062-55.99-22.823-104.31-27.565-48.31-4.74-109.53-4.459-181.87 2.52C1362.77 34.157 1173.64 74.9 954.368 155.8l-.346-.939C1173.36 73.936 1362.58 33.172 1507.36 19.206c72.38-6.983 133.67-7.267 182.05-2.52 48.37 4.747 83.91 14.527 104.75 27.717l-.53.845ZM954.368 155.802c-438.825 161.906-777.867-16.72-913.753-93.36l.491-.872c135.825 76.606 474.524 255.04 912.916 93.293l.346.939ZM1792.94 42.496c-20.71-13.045-56.2-22.772-104.71-27.464-48.51-4.69-109.98-4.345-182.63 2.71-145.29 14.112-335.26 55.061-555.525 136.209l-.345-.938c220.34-81.174 410.39-122.145 555.78-136.266 72.69-7.06 134.23-7.408 182.81-2.71 48.57 4.696 84.24 14.441 105.16 27.612l-.54.847ZM950.075 153.95C509.256 316.351 168.999 138.04 32.631 61.525l.49-.872c136.306 76.481 476.22 254.601 916.609 92.359l.345.938ZM1792.33 40.036c-20.78-13.028-56.38-22.724-105.08-27.372-48.67-4.646-110.37-4.243-183.3 2.881-145.84 14.25-336.55 55.384-557.71 136.753l-.346-.939C1167.12 69.965 1357.91 28.809 1503.86 14.55c72.97-7.13 134.73-7.535 183.49-2.881 48.74 4.652 84.53 14.366 105.51 27.52l-.53.847ZM946.24 152.298c-442.603 162.843-783.946-15.186-920.745-91.59l.488-.872c136.737 76.369 477.738 254.208 919.911 91.523l.346.939Zm845.55-114.43c-20.83-13.013-56.55-22.68-105.4-27.29-48.83-4.607-110.73-4.154-183.89 3.032-146.33 14.37-337.69 55.668-559.64 137.232l-.345-.939C1164.53 68.313 1355.97 26.995 1502.4 12.614c73.21-7.19 135.18-7.646 184.09-3.031 48.89 4.613 84.79 14.299 105.83 27.438l-.53.848ZM942.86 150.843C498.687 314.074 156.387 136.294 19.209 59.989l.486-.874c137.116 76.271 479.075 253.863 922.82 90.788l.345.939Zm848.47-114.848c-20.89-13-56.7-22.646-105.68-27.221-48.96-4.574-111.03-4.077-184.41 3.162-146.75 14.476-338.68 55.914-561.304 137.647l-.344-.939C1162.29 66.885 1354.3 25.425 1501.14 10.939c73.42-7.243 135.56-7.743 184.61-3.162 49.02 4.58 85.02 14.242 106.11 27.368l-.53.849ZM939.936 149.582C494.405 313.151 151.278 135.586 13.77 59.366l.485-.874c137.444 76.185 480.231 253.563 925.337 90.151l.344.939Zm850.994-115.17c-20.92-12.99-56.81-22.615-105.9-27.162-49.08-4.545-111.3-4.012-184.85 3.271-147.11 14.565-339.51 56.123-562.711 137.998l-.344-.939C1160.39 65.68 1352.88 24.1 1500.08 9.526c73.6-7.287 135.88-7.824 185.04-3.272 49.14 4.551 85.21 14.193 106.34 27.308l-.53.85ZM937.469 148.519C490.79 312.372 146.965 134.989 9.181 58.841l.483-.876c137.721 76.114 481.207 253.312 927.461 89.615l.344.939ZM1790.61 33.122c-20.96-12.981-56.91-22.59-106.09-27.113-49.17-4.523-111.51-3.959-185.21 3.36-147.39 14.638-340.19 56.292-563.852 138.283l-.344-.939C1158.85 64.697 1351.72 23.021 1499.21 8.373c73.75-7.322 136.15-7.89 185.4-3.36 49.23 4.527 85.37 14.153 106.53 27.259l-.53.85Zm-855.152 114.53C487.844 311.737 143.45 134.502 5.44 58.412l.482-.875c137.947 76.054 482.003 253.105 929.192 89.176l.344.939ZM1790.37 32.125c-20.99-12.975-56.99-22.57-106.25-27.076-49.24-4.505-111.67-3.918-185.48 3.43-147.62 14.693-340.71 56.422-564.737 138.503l-.344-.939C1157.65 63.937 1350.83 22.186 1498.54 7.483c73.86-7.351 136.35-7.942 185.67-3.43 49.3 4.51 85.49 14.122 106.68 27.221l-.52.851ZM933.903 146.982c-448.336 164.264-793.171-12.857-931.356-88.9l.482-.877c138.121 76.009 482.617 252.947 930.53 88.838l.344.939Z" fill="#FD1640"/></svg>
